cla-icons/mediaCode.svg

<?xml version="1.0" encoding="UTF-8" standalone="no"?>
<svg width="512px" height="512px" viewBox="0 0 512 512" version="1.1" xmlns="http://www.w3.org/2000/svg" xmlns:xlink="http://www.w3.org/1999/xlink" xmlns:sketch="http://www.bohemiancoding.com/sketch/ns">
    <!-- Generator: Sketch 3.0.4 (8053) - http://www.bohemiancoding.com/sketch -->
    <title>mediaCode</title>
    <desc>Created with Sketch.</desc>
    <defs></defs>
    <g id="Page-1" stroke="none" stroke-width="1" fill="none" fill-rule="evenodd" sketch:type="MSPage">
        <g id="mediaCode" sketch:type="MSArtboardGroup" fill="#0B0C0C">
            <path d="M479.996,384 C497.671,384 512,369.676 512,352.003 L512,31.997 C512,14.325 497.671,0 479.996,0 L32.004,0 C14.329,0 0,14.323 0,31.997 L0,352.003 C0,369.674 14.329,384 32.004,384 L192,384 L192,448 L32.004,448 C14.329,448 0,462.323 0,480 C0,497.673 14.329,512 32.004,512 L479.996,512 C497.671,512 512,497.677 512,480 C512,462.327 497.671,448 479.996,448 L288,448 L288,384 L479.996,384 L479.996,384 Z M65.002,288 C64.456,288 64,287.553 64,287.001 L64,64.999 C64,64.442 64.449,64 65.002,64 L446.998,64 C447.544,64 448,64.447 448,64.999 L448,287.001 C448,287.558 447.552,288 446.998,288 L65.002,288 L65.002,288 Z" id="Imported-Layers" sketch:type="MSShapeGroup"></path>
        </g>
    </g>
</svg>

<?xml version="1.0" encoding="utf-8"?>
<!-- Generator: Adobe Illustrator 18.0.0, SVG Export Plug-In . SVG Version: 6.00 Build 0)  -->
<!DOCTYPE svg PUBLIC "-//W3C//DTD SVG 1.1//EN" "http://www.w3.org/Graphics/SVG/1.1/DTD/svg11.dtd">
<svg version="1.1" id="Layer_1" xmlns:sketch="http://www.bohemiancoding.com/sketch/ns"
	 xmlns="http://www.w3.org/2000/svg" xmlns:xlink="http://www.w3.org/1999/xlink" x="0px" y="0px" viewBox="0 0 512 512"
	 enable-background="new 0 0 512 512" xml:space="preserve">
<path fill="#0B0C0C" d="M480,384c17.7,0,32-14.3,32-32V32c0-17.7-14.3-32-32-32H32C14.3,0,0,14.3,0,32v320c0,17.7,14.3,32,32,32h160
	v64H32c-17.7,0-32,14.3-32,32c0,17.7,14.3,32,32,32h448c17.7,0,32-14.3,32-32c0-17.7-14.3-32-32-32H288v-64H480z M65,288
	c-0.5,0-1-0.4-1-1V65c0-0.6,0.4-1,1-1h382c0.5,0,1,0.4,1,1v222c0,0.6-0.4,1-1,1H65z"/>
</svg>
